storage/app/icons/tabler/filled/car.svg

<!--
unicode: "1004c"
version: "3.17"
-->
<svg
  xmlns="http://www.w3.org/2000/svg"
  width="24"
  height="24"
  viewBox="0 0 24 24"
  fill="currentColor"
>
  <path d="M14 5a1 1 0 0 1 .694 .28l.087 .095l3.699 4.625h.52a3 3 0 0 1 2.995 2.824l.005 .176v4a1 1 0 0 1 -1 1h-1.171a3.001 3.001 0 0 1 -5.658 0h-4.342a3.001 3.001 0 0 1 -5.658 0h-1.171a1 1 0 0 1 -1 -1v-6l.007 -.117l.008 -.056l.017 -.078l.012 -.036l.014 -.05l2.014 -5.034a1 1 0 0 1 .928 -.629zm-7 11a1 1 0 1 0 0 2a1 1 0 0 0 0 -2m10 0a1 1 0 1 0 0 2a1 1 0 0 0 0 -2m-6 -9h-5.324l-1.2 3h6.524zm2.52 0h-.52v3h2.92z" />
</svg>

<svg xmlns="http://www.w3.org/2000/svg" width="24" height="24" fill="currentColor" viewBox="0 0 24 24"><path d="M14 5a1 1 0 0 1 .694.28l.087.095L18.48 10H19a3 3 0 0 1 2.995 2.824L22 13v4a1 1 0 0 1-1 1h-1.171a3.001 3.001 0 0 1-5.658 0H9.829a3.001 3.001 0 0 1-5.658 0H3a1 1 0 0 1-1-1v-6l.007-.117.008-.056.017-.078.012-.036.014-.05 2.014-5.034A1 1 0 0 1 5 5zM7 16a1 1 0 1 0 0 2 1 1 0 0 0 0-2m10 0a1 1 0 1 0 0 2 1 1 0 0 0 0-2m-6-9H5.676l-1.2 3H11zm2.52 0H13v3h2.92z"/></svg>
